webapp/src/assets/icons/cloudproviders/aws/application_integration/api_gateway_endpoint.svg

<svg width="48" height="48" xmlns="http://www.w3.org/2000/svg"><path d="M25.909 24.955h1.908v-1.909h-1.908v1.909Zm-2.864 0h1.909v-1.909h-1.909v1.909Zm-2.863 0h1.909v-1.909h-1.909v1.909Zm17.136 6.048-6.59 5.799v-25.47l6.59 5.798v13.873ZM30.944 8.926c-.204-.087-1.088-.347-1.702-.006l-.514.285v29.724l.514.285c.229.127.495.171.751.171.428 0 .823-.122.951-.177l.148-.062 7.473-6.577c.463-.27.753-.756.753-1.285V16.849c0-.528-.289-1.014-.752-1.285l-7.474-6.576-.148-.062ZM17.273 36.803l-6.591-5.799V17.129l6.591-5.798v25.472Zm-.218-27.877-.148.062-7.475 6.577c-.461.271-.75.756-.75 1.284v14.435c0 .528.289 1.015.751 1.284l7.474 6.578.148.062c.127.055.523.177.951.177.255 0 .521-.044.75-.17l.517-.285V9.204l-.517-.285c-.612-.337-1.498-.08-1.701.007ZM44 32.284 32.284 44H15.715L4 32.284V15.716L15.715 4h16.569L44 15.716v16.568ZM33.112 2H14.887L2 14.888v18.224L14.887 46h18.225L46 33.112V14.888L33.112 2Z" fill="#E7157B" fill-rule="evenodd"/></svg>

<?xml version="1.0" encoding="UTF-8"?>
<svg width="48px" height="48px" viewBox="0 0 48 48" version="1.1" xmlns="http://www.w3.org/2000/svg" xmlns:xlink="http://www.w3.org/1999/xlink">
    <title>Icon-Resource/Application-Integration/Res_Amazon-API-Gateway_Endpoint_48</title>
    <g id="Icon-Resource/Application-Integration/Res_Amazon-API-Gateway_Endpoint_48" stroke="none" stroke-width="1" fill="none" fill-rule="evenodd">
        <path d="M25.909,24.955 L27.817,24.955 L27.817,23.046 L25.909,23.046 L25.909,24.955 Z M23.045,24.955 L24.954,24.955 L24.954,23.046 L23.045,23.046 L23.045,24.955 Z M20.182,24.955 L22.091,24.955 L22.091,23.046 L20.182,23.046 L20.182,24.955 Z M37.318,31.003 L30.728,36.802 L30.728,11.332 L37.318,17.13 L37.318,31.003 Z M30.944,8.926 C30.74,8.839 29.856,8.579 29.242,8.92 L28.728,9.205 L28.728,38.929 L29.242,39.214 C29.471,39.341 29.737,39.385 29.993,39.385 C30.421,39.385 30.816,39.263 30.944,39.208 L31.092,39.146 L38.565,32.569 C39.028,32.299 39.318,31.813 39.318,31.284 L39.318,16.849 C39.318,16.321 39.029,15.835 38.566,15.564 L31.092,8.988 L30.944,8.926 Z M17.273,36.803 L10.682,31.004 L10.682,17.129 L17.273,11.331 L17.273,36.803 Z M17.055,8.926 L16.907,8.988 L9.432,15.565 C8.971,15.836 8.682,16.321 8.682,16.849 L8.682,31.284 C8.682,31.812 8.971,32.299 9.433,32.568 L16.907,39.146 L17.055,39.208 C17.182,39.263 17.578,39.385 18.006,39.385 C18.261,39.385 18.527,39.341 18.756,39.215 L19.273,38.93 L19.273,9.204 L18.756,8.919 C18.144,8.582 17.258,8.839 17.055,8.926 L17.055,8.926 Z M44,32.284 L32.284,44 L15.715,44 L4,32.284 L4,15.716 L15.715,4 L32.284,4 L44,15.716 L44,32.284 Z M33.112,2 L14.887,2 L2,14.888 L2,33.112 L14.887,46 L33.112,46 L46,33.112 L46,14.888 L33.112,2 Z" id="AWS-Amazon-API-Gateway_Endpoint_Resource-Icon_light-bg" fill="#E7157B"></path>
    </g>
</svg>
